build/category/RobotOutline.svg

<svg xmlns="http://www.w3.org/2000/svg" fill="none" viewBox="0 0 24 24" focusable="false"><path d="M0 0H24V24H0z"/><path fill="#74767B" fill-rule="evenodd" d="M11.3662 4L11.3662 2.64982C11.3662 2.29083 11.6572 1.99982 12.0162 1.99982C12.3751 1.99982 12.6662 2.29083 12.6662 2.64982L12.6662 4L16.9999 4C18.6568 4 19.9999 5.34315 19.9999 7L19.9999 10.9998L21.3499 10.9998C21.7089 10.9998 21.9999 11.2908 21.9999 11.6498C21.9999 12.0088 21.7089 12.2998 21.3499 12.2998L19.9999 12.2998L19.9999 17C19.9999 18.6569 18.6568 20 16.9999 20L6.99994 20C5.34309 20 3.99994 18.6569 3.99994 17L3.99994 12.2998L2.64976 12.2998C2.29077 12.2998 1.99976 12.0088 1.99976 11.6498C1.99976 11.2908 2.29077 10.9998 2.64976 10.9998L3.99994 10.9998L3.99994 7C3.99994 5.34315 5.34309 4 6.99994 4L11.3662 4ZM15.0156 10.1191C15.0156 9.70493 14.6798 9.36915 14.2656 9.36915C13.8514 9.36915 13.5156 9.70493 13.5156 10.1191C13.5156 10.5334 13.8514 10.8691 14.2656 10.8691C14.6798 10.8691 15.0156 10.5334 15.0156 10.1191ZM9.22953 14.6258C8.87055 14.6258 8.57953 14.3348 8.57953 13.9758C8.57953 13.6169 8.87055 13.3258 9.22953 13.3258L14.8028 13.3258C15.1617 13.3258 15.4528 13.6169 15.4528 13.9758C15.4528 14.3348 15.1617 14.6258 14.8028 14.6258L9.22953 14.6258ZM10.5156 10.1191C10.5156 9.70493 10.1798 9.36915 9.76557 9.36915C9.35136 9.36915 9.01557 9.70493 9.01557 10.1191C9.01557 10.5334 9.35136 10.8691 9.76557 10.8691C10.1798 10.8691 10.5156 10.5334 10.5156 10.1191ZM16.9999 5.3L6.99994 5.3C6.06106 5.3 5.29994 6.06112 5.29994 7L5.29994 17C5.29994 17.9389 6.06106 18.7 6.99994 18.7L16.9999 18.7C17.9388 18.7 18.6999 17.9389 18.6999 17L18.6999 7C18.6999 6.06112 17.9388 5.3 16.9999 5.3Z"/></svg>

<svg xmlns="http://www.w3.org/2000/svg" fill="none" viewBox="0 0 24 24" focusable="false"><path fill="#74767B" fill-rule="evenodd" d="M11.36 4V2.64c0-.35.29-.65.65-.65s.65.3.65.65V4H17c1.65 0 3 1.34 3 3v3.99h1.34c.36 0 .66.3.66.65 0 .36-.3.65-.66.65H20V17c0 1.65-1.35 3-3 3H7c-1.66 0-3-1.35-3-3v-4.71H2.64c-.35 0-.65-.29-.65-.65 0-.35.3-.65.65-.65H4V7c0-1.66 1.34-3 3-3zm3.65 6.11c0-.41-.34-.75-.75-.75s-.75.34-.75.75a.749.749 0 1 0 1.5 0m-5.79 4.51c-.35 0-.65-.29-.65-.65s.3-.65.65-.65h5.58c.36 0 .65.29.65.65s-.29.65-.65.65zm1.29-4.51c0-.41-.34-.75-.75-.75s-.75.34-.75.75a.749.749 0 1 0 1.5 0M17 5.29H7c-.94 0-1.7.77-1.7 1.71v10c0 .93.76 1.7 1.7 1.7h10c.93 0 1.7-.77 1.7-1.7V7c0-.94-.77-1.71-1.7-1.71"/></svg>
